assets/images/logo-447fe21a.svg

<?xml version="1.0" encoding="UTF-8" standalone="no"?>
<svg width="241px" height="28px" viewBox="0 0 241 28" version="1.1" xmlns="http://www.w3.org/2000/svg" xmlns:xlink="http://www.w3.org/1999/xlink" xmlns:sketch="http://www.bohemiancoding.com/sketch/ns">
    <!-- Generator: Sketch 3.4.2 (15855) - http://www.bohemiancoding.com/sketch -->
    <title>Group + Group + Ruby Belgium Copy</title>
    <desc>Created with Sketch.</desc>
    <defs></defs>
    <g id="Welcome" stroke="none" stroke-width="1" fill="none" fill-rule="evenodd" sketch:type="MSPage">
        <g id="Desktop-HD-Copy-4" sketch:type="MSArtboardGroup" transform="translate(-257.000000, -35.000000)">
            <g id="Group-+-Group-Copy" sketch:type="MSLayerGroup" transform="translate(257.000000, 35.000000)">
                <g id="Group-+-Group-+-Ruby-Belgium-Copy" sketch:type="MSShapeGroup">
                    <g id="Group" transform="translate(1.302722, 1.300395)" stroke="#FFFFFF" stroke-width="1.07219921">
                        <path d="M0.15122541,6.73112072 L6.55563338,0.0121225218 L26.2225334,0.0121225218 L32.64272,6.69053352 L16.3969731,24.5774713 L0.15122541,6.73112072 Z" id="Path-1" stroke-linecap="round" stroke-linejoin="round"></path>
                        <path d="M0.270893947,6.76058606 L32.2563158,6.68598221" id="Path-2"></path>
                        <path d="M6.55563352,0.0409606723 L9.70101308,6.8270751 L16.3879172,0.0409606723 L22.944717,6.8270751 L26.2225341,0.0409606723" id="Path-3" stroke-linecap="round" stroke-linejoin="round"></path>
                        <path d="M9.70201655,6.73604743 L16.3890835,24.5774711 L22.9457206,6.73604743 L9.70201655,6.73604743 Z" id="Path-4" stroke-linecap="round" stroke-linejoin="round"></path>
                    </g>
                    <g id="Group" fill="#FFFFFF">
                        <ellipse id="Oval-1" cx="8.4676933" cy="1.98025102" rx="1.95408307" ry="1.98025102"></ellipse>
                        <ellipse id="Oval-1-Copy-2" cx="33.2194122" cy="8.48222731" rx="1.95408307" ry="1.98025102"></ellipse>
                        <ellipse id="Oval-1-Copy-4" cx="26.7058019" cy="1.98025102" rx="1.95408307" ry="1.98025102"></ellipse>
                        <ellipse id="Oval-1-Copy-6" cx="1.95408307" cy="8.48222731" rx="1.95408307" ry="1.98025102"></ellipse>
                        <ellipse id="Oval-1-Copy-7" cx="17.5867476" cy="25.3873656" rx="1.95408307" ry="1.98025102"></ellipse>
                    </g>
                    <path d="M69.9796229,9.13787747 C69.9796229,12.2874505 68.6026594,14.2718338 65.8486912,15.091087 L70.8550521,22.0273953 L66.7514776,22.0273953 L62.1828314,15.6099447 L57.9424712,15.6099447 L57.9424712,22.0273953 L54.7143259,22.0273953 L54.7143259,2.93889328 L61.8271883,2.93889328 C64.7453003,2.93889328 66.8335428,3.43043777 68.0919786,4.4135415 C69.3504144,5.39664523 69.9796229,6.97140814 69.9796229,9.13787747 L69.9796229,9.13787747 Z M65.6845483,11.8413992 C66.3411235,11.2770248 66.6694061,10.3713086 66.6694061,9.12422332 C66.6694061,7.87713803 66.3320045,7.02148651 65.6571911,6.55724308 C64.9823777,6.09299966 63.7786746,5.86088142 62.0460456,5.86088142 L57.9424712,5.86088142 L57.9424712,12.6879565 L61.9639741,12.6879565 C63.7877941,12.6879565 65.0279731,12.4057736 65.6845483,11.8413992 L65.6845483,11.8413992 Z M83.8770616,15.36417 L83.8770616,7.49937945 L86.9410639,7.49937945 L86.9410639,22.0273953 L83.8770616,22.0273953 L83.8770616,19.3784901 C83.3846302,20.2705657 82.7052675,20.9714718 81.838953,21.4812292 C80.9726385,21.9909867 80.0379448,22.2458617 79.0348438,22.2458617 C77.3934058,22.2458617 76.0665967,21.7452145 75.0543766,20.7439051 C74.0421565,19.7425958 73.536054,18.2952703 73.536054,16.4018854 L73.536054,7.49937945 L76.6000563,7.49937945 L76.6000563,15.4734032 C76.6000563,18.14963 77.7125698,19.4877233 79.9376302,19.4877233 C80.9954457,19.4877233 81.916461,19.1372703 82.7007036,18.4363538 C83.4849462,17.7354372 83.8770616,16.7113862 83.8770616,15.36417 L83.8770616,15.36417 Z M103.929862,9.30172727 C105.315965,10.6489435 106.009006,12.4421706 106.009006,14.6814625 C106.009006,16.9207543 105.320525,18.7412894 103.943541,20.1431225 C102.566557,21.5449556 100.961619,22.2458617 99.12868,22.2458617 C97.2957409,22.2458617 95.649768,21.4448262 94.190712,19.8427312 L94.190712,22.0273953 L91.1267098,22.0273953 L91.1267098,1.76463636 L94.190712,1.76463636 L94.190712,10.0390514 C95.3944332,8.2002833 96.9720139,7.28091304 98.9235012,7.28091304 C100.874989,7.28091304 102.543759,7.95451105 103.929862,9.30172727 L103.929862,9.30172727 Z M95.3944272,18.1905791 C96.2333844,19.0735518 97.2547083,19.5150316 98.4584295,19.5150316 C99.6621507,19.5150316 100.710831,19.0781032 101.604503,18.2042332 C102.498175,17.3303632 102.945004,16.1970801 102.945004,14.8043498 C102.945004,13.4116195 102.507294,12.2555797 101.63186,11.3361957 C100.756427,10.4168116 99.707746,9.95712648 98.4857866,9.95712648 C97.2638272,9.95712648 96.2333844,10.4168116 95.3944272,11.3361957 C94.55547,12.2555797 94.1359977,13.4070682 94.1359977,14.7906957 C94.1359977,16.1743231 94.55547,17.3076063 95.3944272,18.1905791 L95.3944272,18.1905791 Z M111.097439,27.8167549 C109.76605,27.8167549 108.562347,27.3343131 107.486293,26.369415 L108.881509,23.8843597 C109.519846,24.4851453 110.18097,24.7855336 110.864903,24.7855336 C111.548835,24.7855336 112.105092,24.5397614 112.53369,24.0482095 C112.962287,23.5566576 113.176583,23.0195998 113.176583,22.4370198 C113.176583,22.182141 111.216006,17.2029774 107.294793,7.49937945 L110.577653,7.49937945 L114.927442,18.2042332 L119.27723,7.49937945 L122.56009,7.49937945 L115.501942,24.7582253 C115.082463,25.7049178 114.480612,26.4513372 113.696369,26.9975059 C112.912127,27.5436747 112.045825,27.8167549 111.097439,27.8167549 L111.097439,27.8167549 Z M140.779961,22.0273953 L132.408669,22.0273953 L132.408669,2.93889328 L139.849817,2.93889328 C141.144729,2.93889328 142.261802,3.09363877 143.201069,3.40313439 C144.140337,3.71263001 144.837937,4.13135309 145.293892,4.65931621 C146.169326,5.64241994 146.607036,6.75294638 146.607036,7.99092885 C146.607036,9.48379007 146.13285,10.5943165 145.184464,11.3225415 C144.837938,11.5774202 144.600845,11.7367171 144.473178,11.8004368 C144.34551,11.8641564 144.117536,11.9688372 143.789248,12.1144822 C144.974731,12.369361 145.918544,12.9018675 146.620715,13.7120178 C147.322886,14.5221681 147.673966,15.5280138 147.673966,16.729585 C147.673966,18.0585956 147.218017,19.2328408 146.306107,20.2523557 C145.230054,21.4357213 143.388023,22.0273953 140.779961,22.0273953 L140.779961,22.0273953 Z M135.636814,10.8583004 L139.740388,10.8583004 C142.074878,10.8583004 143.242105,10.0663676 143.242105,8.48247826 C143.242105,7.57219703 142.959417,6.91680437 142.394033,6.51628063 C141.828649,6.11575689 140.953228,5.91549802 139.767745,5.91549802 L135.636814,5.91549802 L135.636814,10.8583004 Z M135.636814,19.0507905 L140.697889,19.0507905 C141.883372,19.0507905 142.790709,18.8641857 143.419927,18.4909704 C144.049145,18.1177551 144.363749,17.4122977 144.363749,16.3745771 C144.363749,14.681454 143.005023,13.8349051 140.287532,13.8349051 L135.636814,13.8349051 L135.636814,19.0507905 Z M164.580692,16.1014941 L153.172755,16.1014941 C153.245708,17.1574203 153.729013,18.0085205 154.622685,18.6548202 C155.516357,19.3011198 156.537681,19.6242648 157.686687,19.6242648 C159.510507,19.6242648 160.89659,19.0507962 161.844976,17.9038419 L163.595834,19.8154229 C162.027349,21.4357235 159.984701,22.2458617 157.46783,22.2458617 C155.425152,22.2458617 153.687989,21.5677123 152.25629,20.2113933 C150.824592,18.8550742 150.108753,17.0345391 150.108753,14.7497332 C150.108753,12.4649273 150.83827,10.6489435 152.297326,9.30172727 C153.756382,7.95451105 155.475307,7.28091304 157.454151,7.28091304 C159.432996,7.28091304 161.115445,7.87713831 162.501548,9.06960672 C163.887651,10.2620751 164.580692,11.9051081 164.580692,13.9987549 L164.580692,16.1014941 Z M153.172755,13.6983636 L161.51669,13.6983636 C161.51669,12.4785868 161.133694,11.5410112 160.367689,10.8856087 C159.601685,10.2302062 158.657872,9.90250988 157.536223,9.90250988 C156.414574,9.90250988 155.406928,10.2438602 154.513256,10.9265711 C153.619585,11.6092821 153.172755,12.5332037 153.172755,13.6983636 L153.172755,13.6983636 Z M170.763411,22.0273953 L167.699409,22.0273953 L167.699409,1.76463636 L170.763411,1.76463636 L170.763411,22.0273953 Z M188.408781,7.49937945 L188.408781,20.1704308 C188.408781,22.7374239 187.711181,24.6626398 186.315958,25.9461364 C184.920736,27.2296329 183.12886,27.8713715 180.940276,27.8713715 C178.751692,27.8713715 176.772877,27.1886709 175.003771,25.823249 L176.453701,23.5020435 C177.876281,24.5761753 179.312517,25.1132332 180.762454,25.1132332 C182.212391,25.1132332 183.36138,24.7400235 184.209457,23.9935929 C185.057533,23.2471623 185.481565,22.0547117 185.481565,20.4162055 L185.481565,18.5592411 C185.02561,19.4149055 184.373604,20.0976061 183.525528,20.6073636 C182.677451,21.1171211 181.72452,21.371996 180.666704,21.371996 C178.733455,21.371996 177.146755,20.698398 175.906558,19.3511818 C174.66636,18.0039656 174.046271,16.3290733 174.046271,14.3264545 C174.046271,12.3238358 174.66636,10.6489435 175.906558,9.30172727 C177.146755,7.95451105 178.728895,7.28091304 180.653026,7.28091304 C182.577156,7.28091304 184.141058,8.07284584 185.344779,9.65673518 L185.344779,7.49937945 L188.408781,7.49937945 Z M178.163524,17.2894051 C178.902171,18.1541723 179.896138,18.5865494 181.145454,18.5865494 C182.394771,18.5865494 183.406976,18.1678263 184.1821,17.3303676 C184.957223,16.4929089 185.344779,15.4506525 185.344779,14.2035672 C185.344779,12.9564819 184.952664,11.9005715 184.168421,11.0358043 C183.384178,10.1710372 182.371973,9.73866008 181.131776,9.73866008 C179.891578,9.73866008 178.902171,10.1846912 178.163524,11.0767668 C177.424877,11.9688424 177.055559,13.0110988 177.055559,14.2035672 C177.055559,15.3960356 177.424877,16.424638 178.163524,17.2894051 L178.163524,17.2894051 Z M195.658429,22.0273953 L192.594427,22.0273953 L192.594427,7.49937945 L195.658429,7.49937945 L195.658429,22.0273953 Z M192.211427,3.23928458 C192.211427,2.71132147 192.402925,2.25618768 192.785927,1.87386957 C193.168929,1.49155145 193.624878,1.30039526 194.153785,1.30039526 C194.682693,1.30039526 195.138641,1.49155145 195.521644,1.87386957 C195.904646,2.25618768 196.096144,2.71132147 196.096144,3.23928458 C196.096144,3.7672477 195.904646,4.22238149 195.521644,4.6046996 C195.138641,4.98701772 194.682693,5.17817391 194.153785,5.17817391 C193.624878,5.17817391 193.168929,4.98701772 192.785927,4.6046996 C192.402925,4.22238149 192.211427,3.7672477 192.211427,3.23928458 L192.211427,3.23928458 Z M210.02094,15.36417 L210.02094,7.49937945 L213.084942,7.49937945 L213.084942,22.0273953 L210.02094,22.0273953 L210.02094,19.3784901 C209.528509,20.2705657 208.849146,20.9714718 207.982831,21.4812292 C207.116517,21.9909867 206.181823,22.2458617 205.178722,22.2458617 C203.537284,22.2458617 202.210475,21.7452145 201.198255,20.7439051 C200.186035,19.7425958 199.679932,18.2952703 199.679932,16.4018854 L199.679932,7.49937945 L202.743935,7.49937945 L202.743935,15.4734032 C202.743935,18.14963 203.856448,19.4877233 206.081508,19.4877233 C207.139324,19.4877233 208.060339,19.1372703 208.844582,18.4363538 C209.628824,17.7354372 210.02094,16.7113862 210.02094,15.36417 L210.02094,15.36417 Z M220.33459,14.1626047 L220.33459,22.0273953 L217.270588,22.0273953 L217.270588,7.49937945 L220.33459,7.49937945 L220.33459,10.1482846 C220.772307,9.25620898 221.433432,8.55530294 222.317985,8.04554545 C223.202537,7.53578797 224.155469,7.28091304 225.176808,7.28091304 C227.474821,7.28091304 229.034164,8.22759132 229.854883,10.1209763 C231.295701,8.22759132 233.092137,7.28091304 235.244244,7.28091304 C236.885682,7.28091304 238.212491,7.78156021 239.224711,8.78286957 C240.236931,9.78417892 240.743034,11.2315044 240.743034,13.1248893 L240.743034,22.0273953 L237.679032,22.0273953 L237.679032,14.0533715 C237.679032,11.3771447 236.566518,10.0390514 234.341458,10.0390514 C233.30188,10.0390514 232.394544,10.371299 231.61942,11.0358043 C230.844297,11.7003096 230.438503,12.6697446 230.402026,13.9441383 L230.402026,22.0273953 L227.338024,22.0273953 L227.338024,14.0533715 C227.338024,12.6697441 227.091812,11.6547957 226.599381,11.008496 C226.106949,10.3621964 225.331837,10.0390514 224.274022,10.0390514 C223.216206,10.0390514 222.295191,10.3895044 221.510948,11.0904209 C220.726706,11.7913375 220.33459,12.8153885 220.33459,14.1626047 L220.33459,14.1626047 Z" id="Ruby-Belgium-Copy" fill="#FFFFFF"></path>
                </g>
            </g>
        </g>
    </g>
</svg>

<svg width="241" height="28" viewBox="0 0 241 28" xmlns="http://www.w3.org/2000/svg"><title>Group + Group + Ruby Belgium Copy</title><g fill="none" fill-rule="evenodd"><g stroke="#FFF" stroke-width="1.072"><path d="M1.454 8.032l6.404-6.72h19.667l6.42 6.68L17.7 25.877 1.454 8.032z" stroke-linecap="round" stroke-linejoin="round"/><path d="M1.574 8.06l31.985-.074"/><path d="M7.858 1.34l3.146 6.787L17.69 1.34l6.557 6.787 3.278-6.786" stroke-linecap="round" stroke-linejoin="round"/><path d="M11.005 8.036l6.687 17.842 6.556-17.842H11.005z" stroke-linecap="round" stroke-linejoin="round"/></g><g fill="#FFF"><ellipse cx="8.468" cy="1.98" rx="1.954" ry="1.98"/><ellipse cx="33.219" cy="8.482" rx="1.954" ry="1.98"/><ellipse cx="26.706" cy="1.98" rx="1.954" ry="1.98"/><ellipse cx="1.954" cy="8.482" rx="1.954" ry="1.98"/><ellipse cx="17.587" cy="25.387" rx="1.954" ry="1.98"/></g><path d="M69.98 9.138c0 3.15-1.377 5.134-4.13 5.953l5.005 6.937H66.75l-4.567-6.417h-4.24v6.417h-3.23V2.94h7.114c2.918 0 5.007.49 6.265 1.474 1.258.983 1.888 2.557 1.888 4.724zm-4.295 2.703c.656-.563.984-1.47.984-2.716 0-1.247-.338-2.103-1.013-2.567-.675-.464-1.878-.696-3.61-.696H57.94v6.828h4.022c1.824 0 3.064-.282 3.72-.847zm18.192 3.524V7.5h3.064v14.527h-3.063v-2.65c-.492.894-1.172 1.594-2.038 2.104-.867.51-1.802.766-2.805.766-1.642 0-2.968-.5-3.98-1.502-1.013-1-1.52-2.45-1.52-4.342V7.5H76.6v7.973c0 2.677 1.113 4.015 3.338 4.015 1.057 0 1.978-.35 2.763-1.052.785-.7 1.177-1.725 1.177-3.072zm20.053-6.062c1.386 1.347 2.08 3.14 2.08 5.38 0 2.24-.69 4.06-2.066 5.46-1.377 1.403-2.982 2.104-4.815 2.104-1.834 0-3.48-.8-4.94-2.403v2.184h-3.063V1.765h3.064v8.274c1.204-1.84 2.782-2.76 4.734-2.76 1.95 0 3.62.675 5.006 2.022zm-8.536 8.89c.84.882 1.86 1.323 3.064 1.323s2.253-.437 3.147-1.31c.893-.875 1.34-2.008 1.34-3.4 0-1.393-.438-2.55-1.313-3.47-.876-.918-1.924-1.378-3.146-1.378s-2.253.46-3.092 1.38c-.84.92-1.258 2.07-1.258 3.454 0 1.384.42 2.518 1.258 3.4zm15.703 9.625c-1.33 0-2.535-.483-3.61-1.448l1.395-2.486c.638.6 1.3.902 1.983.902.684 0 1.24-.246 1.67-.738.427-.49.642-1.028.642-1.61 0-.256-1.96-5.235-5.882-14.94h3.283l4.35 10.706 4.35-10.705h3.282l-7.058 17.258c-.42.947-1.02 1.693-1.806 2.24-.784.546-1.65.82-2.6.82zm29.683-5.79h-8.37V2.94h7.44c1.295 0 2.412.154 3.35.463.94.31 1.638.728 2.094 1.256.875.982 1.313 2.093 1.313 3.33 0 1.494-.474 2.604-1.423 3.333-.346.254-.583.414-.71.477-.128.064-.356.17-.685.314 1.185.255 2.13.788 2.83 1.598.703.81 1.054 1.816 1.054 3.018 0 1.33-.456 2.503-1.368 3.522-1.076 1.184-2.918 1.775-5.526 1.775zm-5.143-11.17h4.103c2.335 0 3.502-.79 3.502-2.375 0-.91-.283-1.565-.848-1.966-.565-.4-1.44-.6-2.626-.6h-4.13v4.942zm0 8.194h5.06c1.186 0 2.094-.186 2.723-.56.63-.372.944-1.078.944-2.115 0-1.694-1.36-2.54-4.076-2.54h-4.65v5.216zm28.944-2.95h-11.407c.073 1.057.556 1.91 1.45 2.555.893.646 1.915.97 3.064.97 1.824 0 3.21-.574 4.158-1.72l1.75 1.91c-1.568 1.62-3.61 2.43-6.127 2.43-2.043 0-3.78-.677-5.212-2.034-1.43-1.355-2.147-3.175-2.147-5.46s.728-4.1 2.187-5.448c1.46-1.347 3.178-2.02 5.157-2.02 1.98 0 3.66.595 5.048 1.788 1.386 1.192 2.08 2.835 2.08 4.93v2.1zM153.174 13.7h8.344c0-1.22-.383-2.157-1.15-2.812-.765-.656-1.71-.983-2.83-.983-1.122 0-2.13.34-3.024 1.024-.893.682-1.34 1.606-1.34 2.77zm17.59 8.33H167.7V1.764h3.063v20.262zm17.646-14.53V20.17c0 2.567-.7 4.493-2.094 5.776-1.395 1.284-3.187 1.925-5.376 1.925-2.188 0-4.167-.68-5.936-2.047l1.45-2.32c1.422 1.073 2.86 1.61 4.308 1.61 1.45 0 2.6-.373 3.447-1.12.848-.746 1.272-1.938 1.272-3.577V18.56c-.456.855-1.108 1.538-1.956 2.047-.85.51-1.8.765-2.86.765-1.933 0-3.52-.674-4.76-2.02-1.24-1.348-1.86-3.023-1.86-5.026 0-2.002.62-3.677 1.86-5.024 1.24-1.347 2.823-2.02 4.747-2.02s3.488.79 4.692 2.375V7.5h3.064zm-10.246 9.79c.738.866 1.732 1.3 2.98 1.3 1.25 0 2.263-.42 3.038-1.258.775-.837 1.163-1.88 1.163-3.126 0-1.248-.392-2.303-1.177-3.168-.784-.865-1.796-1.297-3.036-1.297s-2.23.445-2.968 1.337c-.74.892-1.108 1.934-1.108 3.127 0 1.192.37 2.22 1.108 3.085zm17.494 4.74h-3.064V7.497h3.064v14.53zm-3.447-18.79c0-.527.193-.982.576-1.364.383-.382.84-.574 1.368-.574.53 0 .985.192 1.368.574.383.382.574.837.574 1.365 0 .527-.19.982-.574 1.365-.383.382-.84.573-1.368.573-.53 0-.985-.19-1.368-.573-.383-.383-.575-.838-.575-1.366zm17.81 12.126V7.5h3.065v14.527h-3.064v-2.65c-.49.894-1.17 1.594-2.037 2.104-.866.51-1.8.766-2.804.766-1.643 0-2.97-.5-3.982-1.502-1.012-1-1.518-2.45-1.518-4.342V7.5h3.064v7.973c0 2.677 1.112 4.015 3.338 4.015 1.057 0 1.978-.35 2.763-1.052.784-.7 1.176-1.725 1.176-3.072zm10.315-1.2v7.863h-3.064V7.5h3.065v2.648c.437-.892 1.098-1.593 1.983-2.102.885-.51 1.837-.765 2.86-.765 2.297 0 3.856.948 4.677 2.84 1.44-1.892 3.237-2.84 5.39-2.84 1.64 0 2.967.502 3.98 1.503 1.012 1 1.518 2.45 1.518 4.342v8.902h-3.064v-7.974c0-2.676-1.113-4.014-3.34-4.014-1.038 0-1.945.33-2.72.996-.776.664-1.18 1.634-1.218 2.908v8.083h-3.064v-7.974c0-1.383-.246-2.398-.74-3.045-.49-.646-1.266-.97-2.324-.97-1.058 0-1.98.352-2.763 1.052-.783.7-1.175 1.725-1.175 3.073z" fill="#FFF"/></g></svg>
